X: 1
T: Lady Mary Montagus Reel   (F)
O: 1779
R: reel
S: Image from Darlene Wigton, June 2017
Z: 2017 John Chambers <jc:trillian.mit.edu>
M: C|
L: 1/8
K: F
% - - - - - - - - - - - - - - - - - - - - - - - - - - - - -
|:\
"F"FAcA "Bb"dB"F"cA | "F"FAcA "C7"GEGE |\
"F"FAcA "Bb"dB"F"cA | "Gm"GB"C7"GE "F"F2F2 :|
|:\
"F"c2Ac cAcA | "F"c2Ac f2a2 |\
"F"c2Ac cAcA | "Gm"gb"C7"ge "F"f2f2 :| [b2E2]
% - - - - - - - - - - - - - - - - - - - - - - - - - - - - -

%%sep 1 1 500

